!!!COM: Fanny Hensel
!!!OTL: Hörst du nicht die Bäume rauschen
**kern	**text	**dynam	**kern	**text	**dynam	**kern	**text	**dynam	**kern	**text	**dynam
*part4	*part4	*part4	*part3	*part3	*part3	*part2	*part2	*part2	*part1	*part1	*part1
*staff4	*staff4	*	*staff3	*staff3	*	*staff2	*staff2	*	*staff1	*staff1	*
*I"Bass	*	*	*I"Tenor	*	*	*I"Alt	*	*	*I"Sopran	*	*
*clefF4	*	*	*clefGv2	*	*	*clefG2	*	*	*clefG2	*	*
*k[f#c#g#d#a#]	*	*	*k[f#c#g#d#a#]	*	*	*k[f#c#g#d#a#]	*	*	*k[f#c#g#d#a#]	*	*
*B:	*	*	*B:	*	*	*B:	*	*	*B:	*	*
*M4/4	*	*	*M4/4	*	*	*M4/4	*	*	*M4/4	*	*
*met(c)	*	*	*met(c)	*	*	*met(c)	*	*	*met(c)	*	*
=	=	=	=	=	=	=	=	=	=	=	=
!	!	!LO:DY:a	!	!	!LO:DY:a	!	!	!LO:DY:a	!LO:TX:a:B:t=Allegretto	!	!LO:DY:a
4.B	Hörst	p	4.d#	Hörst	p	4.f#	Hörst	p	4.dd#	Hörst	p
8B	du	.	8d#	du	.	8f#	du	.	8ee	du	.
=1	=1	=1	=1	=1	=1	=1	=1	=1	=1	=1	=1
4A#	nicht	.	4c#	nicht	.	4f#	nicht	.	4ff#	nicht	.
4A#	die	.	4d#	die	.	4f#	die	.	4dd#	die	.
4.G#	Bäu-	.	4.d#	Bäu-	.	4.f#	Bäu-	.	4.b	Bäu-	.
8G#	-me	.	8c#	-me	.	8e#X	-me	.	8cc#	-me	.
=2	=2	=2	=2	=2	=2	=2	=2	=2	=2	=2	=2
4F#	rau-	.	4d#	rau-	.	4f#	rau-	.	4b	rau-	.
4F#	-schen,	.	4c#	-schen,	.	4f#	-schen,	.	4a#	-schen,	.
4E	drau-	.	4c#	drau-	.	4f#	drau-	.	4a#	drau-	.
4E	-ßen	.	8BL	-ßen	.	4f#	-ßen	.	8g#L	-ßen	.
.	.	.	8A#J	.	.	.	.	.	8f#J	.	.
=3	=3	=3	=3	=3	=3	=3	=3	=3	=3	=3	=3
4D#	durch	.	4B	durch	.	4f#	durch	.	4f#	durch	.
!	!	!LO:DY:a	!	!	!LO:DY:a	!	!	!LO:DY:a	!	!	!LO:DY:a
4D#	die	<	4B	die	<	4f#	die	<	4b	die	<
4C#	stil-	.	4A#	stil-	.	4f#	stil-	.	4cc#	stil-	.
4BB	-le	.	4B	-le	.	4f#	-le	.	4dd#	-le	.
=4	=4	=4	=4	=4	=4	=4	=4	=4	=4	=4	=4
2AA#	Rund?	[	2c#	Rund?	[	2f#	Rund?	[	2ee	Rund?	[
!	!	!LO:DY:a	!	!	!LO:DY:a	!	!	!LO:DY:a	!	!	!LO:DY:a
4.B	Lockt	p	4.d#	Lockt	p	4.f#	Lockt	p	4.dd#	Lockt	p
8B	dich’s	.	8d#	dich’s	.	8f#	dich’s	.	8ee	dich’s	.
=5	=5	=5	=5	=5	=5	=5	=5	=5	=5	=5	=5
4A#	nicht	.	4c#	nicht	.	4f#	nicht	.	4ff#	nicht	.
4A#	hin-	.	4d#	hin-	.	4f#	hin-	.	4dd#	hin-	.
4.G#	-ab	.	4.d#	-ab	.	4.f#	-ab	.	4.b	-ab	.
8G#	zu	.	8c#	zu	.	8e#X	zu	.	8cc#	zu	.
=6	=6	=6	=6	=6	=6	=6	=6	=6	=6	=6	=6
4F#	lau-	.	4d#	lau-	.	4f#	lau-	.	4b	lau-	.
4F#	-schen	.	4c#	-schen	.	4f#	-schen	.	4a#	-schen	.
!	!	!LO:DY:a	!	!	!LO:DY:a	!	!	!LO:DY:a	!	!	!LO:DY:a
4E	von	<	4c#	von	<	4f#	von	<	4a#	von	<
4E	dem	[	4c#	dem	[	4f#	dem	[	4a#	dem	[
=7	=7	=7	=7	=7	=7	=7	=7	=7	=7	=7	=7
4.D#	Söl-	.	4.A#	Söl-	.	4.f##X	Söl-	.	4.dd#	Söl-	.
8D#	-ler	.	8A#	-ler	.	8f##	-ler	.	8cc#	-ler	.
4D#	in	.	4d#	in	.	4f##	in	.	4b	in	.
!	!	!LO:DY:a	!	!	!LO:DY:a	!	!	!LO:DY:a	!	!	!LO:DY:a
4D#	den	>	4c#	den	>	4f##	den	>	4a#	den	>
=8	=8	=8	=8	=8	=8	=8	=8	=8	=8	=8	=8
2G#	Grund,	]	2B	Grund,	]	2g#	Grund,	]	2b	Grund,	]
2r	.	.	2r	.	.	2r	.	.	4.dd#	lockt	.
.	.	.	.	.	.	.	.	.	8dd#	dich’s	.
=9	=9	=9	=9	=9	=9	=9	=9	=9	=9	=9	=9
1r	.	.	1r	.	.	1r	.	.	4cc#	nicht	.
.	.	.	.	.	.	.	.	.	4b	hin-	.
.	.	.	.	.	.	.	.	.	4a#	-ab	.
.	.	.	.	.	.	.	.	.	8bL	zu	.
.	.	.	.	.	.	.	.	.	8g#J	.	.
=10	=10	=10	=10	=10	=10	=10	=10	=10	=10	=10	=10
1BB	nicht	.	(2G#	nicht	.	1c#	nicht	.	4f#	lau-	.
.	.	.	.	.	.	.	.	.	4e#X	-schen	.
.	.	.	2E#X)	.	.	.	.	.	8g#L	von	.
.	.	.	.	.	.	.	.	.	8e#J	.	.
.	.	.	.	.	.	.	.	.	8d#L	dem	.
.	.	.	.	.	.	.	.	.	8c#J	.	.
=11	=11	=11	=11	=11	=11	=11	=11	=11	=11	=11	=11
4AA#	von	.	4F#	von	.	4c#	von	.	(2f#	Söl-	.
4AA#	dem	.	4c#	dem	.	4e	dem	.	.	.	.
4BB	Söl-	.	4B	Söl-	.	4d#	Söl-	.	[2ff#)	.	.
4BB	-ler	.	4B	-ler	.	4dn	-ler	.	.	.	.
=12	=12	=12	=12	=12	=12	=12	=12	=12	=12	=12	=12
2C#	in	.	2A#	in	.	2c#	in	.	4ff#]	.	.
.	.	.	.	.	.	.	.	.	4f#	-ler	.
2C#	den	.	4.B	den	.	2e#X	den	.	4.g#	in	.
.	.	.	8c#	.	.	.	.	.	8a#	den	.
=13	=13	=13	=13	=13	=13	=13	=13	=13	=13	=13	=13
2.FF# 2.F#	Grund?	.	(2B	Grund?	.	(2e#X	Grund?	.	(2g#	Grund?	.
.	.	.	4A#)	.	.	4f#)	.	.	4f#)	.	.
4r	.	.	4r	.	.	4r	.	.	4r	.	.
=14	=14	=14	=14	=14	=14	=14	=14	=14	=14	=14	=14
!	!	!LO:DY:a	!	!	!	!	!	!LO:DY:a	!	!	!LO:DY:a
8B	Wo	pp	8B	Wo	pp	8dn	Wo	pp	8f#	Wo	pp
8B	die	.	8B	die	.	8d	die	.	8f#	die	.
.	.	.	.	.	.	.	.	.	8qan/	.	.
8B	vie-	.	8B	vie-	.	8d	vie-	.	8gn	vie-	.
8B	-len	.	8B	-len	.	8d	-len	.	8f#	-len	.
4An	Bä-	.	4An	Bä-	.	4c#	Bä-	.	4f#	Bä-	.
4A	-che	.	4A	-che	.	4c#	-che	.	4f#	-che	.
=15	=15	=15	=15	=15	=15	=15	=15	=15	=15	=15	=15
!	!	!LO:DY:a	!	!	!LO:DY:a	!	!	!LO:DY:a	!	!	!LO:DY:a
(2Gn	ge-	>	(2B	ge-	>	(2e#X	ge-	>	(2b	ge-	>
4F#)	-hen	]	4c#)	-hen	]	4f#)	-hen	]	4a#)	-hen	]
4r	.	.	4r	.	.	4r	.	.	4r	.	.
=16	=16	=16	=16	=16	=16	=16	=16	=16	=16	=16	=16
8B	wun-	.	8B	wun-	.	8dn	wun-	.	8f#	wun-	.
8B	-der-	.	8B	-der-	.	8d	-der-	.	8f#	-der-	.
.	.	.	.	.	.	.	.	.	8qan/	.	.
8B	-bar	.	8B	-bar	.	8d	-bar	.	8gn	-bar	.
8B	im	.	8B	im	.	8d	im	.	8f#	im	.
!	!	!LO:DY:a	!	!	!LO:DY:a	!	!	!LO:DY:a	!	!	!LO:DY:a
4B-X	Mon-	<	4dn	Mon-	<	4gn	Mon-	<	4ddn	Mon-	<
4B-	-den-	.	4d	-den-	.	4g#X	-den-	.	4dd	-den-	.
=17	=17	=17	=17	=17	=17	=17	=17	=17	=17	=17	=17
2.An	-schein,	[	(2f#	-schein,	[	2.an	-schein,	[	(2ddn	-schein,	[
.	.	.	4e)	.	.	.	.	.	4cc#)	.	.
4r	.	.	4r	.	.	4r	.	.	4r	.	.
=18	=18	=18	=18	=18	=18	=18	=18	=18	=18	=18	=18
!	!	!LO:DY:a	!	!	!LO:DY:a	!	!	!LO:DY:a	!	!	!LO:DY:a
8C#	und	<	8e	und	<	8gn	und	<	8an	und	<
8C#	die	.	8e	die	.	8g	die	.	8a	die	.
.	.	.	.	.	.	.	.	.	8qcc#/	.	.
8C#	stil-	.	8e	stil-	.	8g	stil-	.	8b	stil-	.
8C#	-len	.	8e	-len	.	8g	-len	.	8a	-len	.
4Dn	Bur-	.	4An	Bur-	.	4f#	Bur-	.	4a	Bur-	.
4D	-gen	.	4A	-gen	.	4f#	-gen	.	4a	-gen	.
=19	=19	=19	=19	=19	=19	=19	=19	=19	=19	=19	=19
2BB	se-	[	2dn	se-	[	2g#X	se-	[	2ff#	se-	[
4C#	-hen	.	4c#	-hen	.	4g#	-hen	.	4ee#X	-hen	.
!	!	!LO:DY:a	!	!	!	!	!	!LO:DY:a	!	!	!
8.B	in	mf	8.c#	in	mf	8.e#X	in	mf	8.cc#	in	mf
16B	den	.	16c#	den	.	16e#	den	.	16cc#	den	.
=20	=20	=20	=20	=20	=20	=20	=20	=20	=20	=20	=20
4.An	Fluß	.	4.c#	Fluß	.	4.f#	Fluß	.	4.ff#	Fluß	.
8A	vom	.	8c#	vom	.	8f#	vom	.	8cc#	vom	.
4A	ho-	.	4c#	ho-	.	4f#	ho-	.	4cc#	ho-	.
4A	-hen	.	4cn	-hen	.	4f#	-hen	.	4dd#	-hen	.
=21	=21	=21	=21	=21	=21	=21	=21	=21	=21	=21	=21
2.G#	Stein,	.	2B	Stein,	.	2e	Stein,	.	2.ee	Stein,	.
.	.	.	4r	.	.	4r	.	.	.	.	.
!	!	!LO:DY:a	!	!	!	!	!	!LO:DY:a	!	!	!
8.Gn	in	p	8.B	in	p	8.e	in	p	8.b	in	p
16G	dem	.	16B	dem	.	16e	dem	.	16cc#	dem	.
=22	=22	=22	=22	=22	=22	=22	=22	=22	=22	=22	=22
4.F#	Fluß	.	4.B	Fluß	.	4.d#	Fluß	.	4.dd#	Fluß	.
8F#	vom	.	8B	vom	.	8d#	vom	.	8cc#	vom	.
4F#	ho-	.	4c#	ho-	.	4e	ho-	.	4b	ho-	.
4F#	-hen	.	4c#	-hen	.	4e	-hen	.	4a#	-hen	.
=23	=23	=23	=23	=23	=23	=23	=23	=23	=23	=23	=23
[1B	Stein,	.	4B	Stein,	.	4d#	Stein,	.	[1b	Stein,	.
.	.	.	4d#	vom	.	4f#	vom	.	.	.	.
.	.	.	4.e	ho-	.	4.gn	ho-	.	.	.	.
.	.	.	8d#	-hen	.	8f#	-hen	.	.	.	.
=24	=24	=24	=24	=24	=24	=24	=24	=24	=24	=24	=24
1B_	.	.	(1c#	Stein.	.	(1e	Stein.	.	4b]	.	.
.	.	.	.	.	.	.	.	.	4a#	vom	.
.	.	.	.	.	.	.	.	.	4.ee	ho-	.
.	.	.	.	.	.	.	.	.	8a#	-hen	.
=25	=25	=25	=25	=25	=25	=25	=25	=25	=25	=25	=25
2B;]	.	.	2d#;)	.	.	2f#;)	.	.	2b;	Stein.	.
4.B	Kennst	.	4.d#	Kennst	.	4.f#	Kennst	.	4.dd#	Kennst	.
8B	du	.	8d#	du	.	8f#	du	.	8ee	du	.
=26	=26	=26	=26	=26	=26	=26	=26	=26	=26	=26	=26
4A#	noch	.	4c#	noch	.	4f#	noch	.	4ff#	noch	.
4A#	die	.	4d#	die	.	4f#	die	.	4dd#	die	.
4.G#	sü-	.	4.d#	sü-	.	4.f#	sü-	.	4.b	sü-	.
8G#	-ßen	.	8c#	-ßen	.	8e#X	-ßen	.	8cc#	-ßen	.
=27	=27	=27	=27	=27	=27	=27	=27	=27	=27	=27	=27
4F#	Lie-	.	4d#	Lie-	.	4f#	Lie-	.	4b	Lie-	.
4F#	-der	.	4c#	-der	.	4f#	-der	.	4a#	-der	.
4E	aus	.	4c#	aus	.	4f#	aus	.	4a#	aus	.
4E	der	.	8BL	der	.	4f#	der	.	8g#L	der	.
.	.	.	8A#J	.	.	.	.	.	8f#J	.	.
=28	=28	=28	=28	=28	=28	=28	=28	=28	=28	=28	=28
!	!	!LO:DY:a	!	!	!LO:DY:a	!	!	!LO:DY:a	!	!	!LO:DY:a
4D#	al-	<	4B	al-	<	4f#	al-	<	4f#	al-	<
4D#	-ten	.	4B	-ten	.	4f#	-ten	.	4b	-ten	.
4C#	schö-	.	4A#	schö-	.	4f#	schö-	.	4cc#	schö-	.
4BB	-nen	[	4B	-nen	[	4f#	-nen	[	4dd#	-nen	[
=29	=29	=29	=29	=29	=29	=29	=29	=29	=29	=29	=29
2AA#	Zeit?	.	2c#	Zeit?	.	2f#	Zeit?	.	2ee	Zeit?	.
4.B	Sie	.	4.d#	Sie	.	4.f#	Sie	.	4.dd#	Sie	.
8B	er-	.	8d#	er-	.	8f#	er-	.	8ee	er-	.
=30	=30	=30	=30	=30	=30	=30	=30	=30	=30	=30	=30
4A#	-wa-	.	4c#	-wa-	.	4f#	-wa-	.	4ff#	-wa-	.
4A#	-chen	.	4d#	-chen	.	4f#	-chen	.	4dd#	-chen	.
4.G#	al-	.	4.d#	al-	.	4.f#	al-	.	4.b	al-	.
8G#	-le	.	8c#	-le	.	8e#X	-le	.	8cc#	-le	.
=31	=31	=31	=31	=31	=31	=31	=31	=31	=31	=31	=31
4F#	wie-	.	4d#	wie-	.	4f#	wie-	.	4b	wie-	.
4F#	-der	.	4c#	-der	.	4f#	-der	.	4a#	-der	.
!	!	!LO:DY:a	!	!	!LO:DY:a	!	!	!LO:DY:a	!	!	!LO:DY:a
4E	nachts	<	4c#	nachts	<	4f#	nachts	<	4a#	nachts	<
4E	in	.	4c#	in	.	4f#	in	.	4a#	in	.
=32	=32	=32	=32	=32	=32	=32	=32	=32	=32	=32	=32
4.D#	Wal-	[	4.A#	Wal-	[	4.f##X	Wal-	[	4.dd#	Wal-	[
8D#	-des-	.	8A#	-des-	.	8f##	-des-	.	8cc#	-des-	.
4D#	-ein-	.	4d#	-ein-	.	4f##	-ein-	.	4b	-ein-	.
4D#	-sam-	.	4c#	-sam-	.	4f##	-sam-	.	4a#	-sam-	.
=33	=33	=33	=33	=33	=33	=33	=33	=33	=33	=33	=33
2G#	-keit,	.	2B	-keit,	.	2g#	-keit,	.	2b	-keit,	.
2r	.	.	2r	.	.	2r	.	.	4.dd#	sie	.
.	.	.	.	.	.	.	.	.	8dd#	er-	.
=34	=34	=34	=34	=34	=34	=34	=34	=34	=34	=34	=34
1r	.	.	1r	.	.	1r	.	.	4cc#	-wa-	.
.	.	.	.	.	.	.	.	.	4b	-chen	.
.	.	.	.	.	.	.	.	.	4a#	al-	.
.	.	.	.	.	.	.	.	.	8bL	-le	.
.	.	.	.	.	.	.	.	.	8g#J	.	.
=35	=35	=35	=35	=35	=35	=35	=35	=35	=35	=35	=35
2.BB	wie-	.	2.G#	wie-	.	2.c#	wie-	.	4f#	wie-	.
.	.	.	.	.	.	.	.	.	4e#X	-der	.
.	.	.	.	.	.	.	.	.	8g#L	nachts	.
.	.	.	.	.	.	.	.	.	8e#J	.	.
4BB	-der	.	4E#X	-der	.	4c#	-der	.	8d#L	in	.
.	.	.	.	.	.	.	.	.	8c#J	.	.
=36	=36	=36	=36	=36	=36	=36	=36	=36	=36	=36	=36
4AA#	nachts	.	4F#	nachts	.	4c#	nachts	.	(2f#	Wal-	.
4AA#	in	.	4c#	in	.	4e	in	.	.	.	.
4BB	Wal-	.	4B	Wal-	.	4d#	Wal-	.	[2ff#)	.	.
4BB	-des-	.	4B	-des-	.	4dn	-des-	.	.	.	.
=37	=37	=37	=37	=37	=37	=37	=37	=37	=37	=37	=37
2C#	-ein-	.	(2A#	-ein-	.	2c#	-ein-	.	4ff#]	.	.
.	.	.	.	.	.	.	.	.	4f#	-des-	.
2C#	-sam-	.	4.B)	-sam-	.	2e#X	-sam-	.	4.g#	-ein-	.
.	.	.	8c#	.	.	.	.	.	8a#	-sam-	.
=38	=38	=38	=38	=38	=38	=38	=38	=38	=38	=38	=38
2.FF# 2.F#	-keit,	.	(2B	-keit,	.	(2e#X	-keit,	.	(2g#	-keit,	.
.	.	.	4A#)	.	.	4f#)	.	.	4f#)	.	.
4r	.	.	4r	.	.	4r	.	.	4r	.	.
=39	=39	=39	=39	=39	=39	=39	=39	=39	=39	=39	=39
!	!	!LO:DY:a	!	!	!LO:DY:a	!	!	!LO:DY:a	!	!	!LO:DY:a
8B	wenn	pp	8B	wenn	pp	8dn	wenn	pp	8f#	wenn	pp
8B	die	.	8B	die	.	8d	die	.	8f#	die	.
!	!	!	!	!	!	!	!	!	!	!	!LO:DY:a
.	.	.	.	.	.	.	.	.	(8qan/	.	<
!	!	!LO:DY:a	!	!	!LO:DY:a	!	!	!LO:DY:a	!	!	!
8B	Bäu-	<	8B	Bäu-	<	8d	Bäu-	<	8gn)	Bäu-	.
8B	-me	.	8B	-me	.	8d	-me	.	8f#	-me	.
4An	träu-	.	4An	träu-	.	4c#	träu-	.	4f#	träu-	.
4A	-mend	.	4A	-mend	.	4c#	-mend	.	4f#	-mend	.
=40	=40	=40	=40	=40	=40	=40	=40	=40	=40	=40	=40
2Gn	lau-	[	2B	lau-	[	2e#X	lau-	[	2b	lau-	[
4F#	-schen	.	4c#	-schen	.	4f#	-schen	.	4a#	-schen	.
4r	.	.	4r	.	.	4r	.	.	4r	.	.
=41	=41	=41	=41	=41	=41	=41	=41	=41	=41	=41	=41
8B	und	.	8B	und	.	8dn	und	.	8f#	und	.
8B	der	.	8B	der	.	8d	der	.	8f#	der	.
.	.	.	.	.	.	.	.	.	(8qan/	.	.
8B	Flie-	.	8B	Flie-	.	8d	Flie-	.	8gn)	Flie-	.
8B	-der	.	8B	-der	.	8d	-der	.	8f#	-der	.
4B-X	duf-	.	4dn	duf-	.	4gn	duf-	.	4ddn	duf-	.
4B-	-tet	.	4d	-tet	.	4g#X	-tet	.	4dd	-tet	.
=42	=42	=42	=42	=42	=42	=42	=42	=42	=42	=42	=42
2.An	schwül,	.	(2f#	schwül,	.	2.an	schwül,	.	(2ddn	schwül,	.
.	.	.	4e)	.	.	.	.	.	4cc#)	.	.
4r	.	.	4r	.	.	4r	.	.	4r	.	.
=43	=43	=43	=43	=43	=43	=43	=43	=43	=43	=43	=43
8C#	und	.	8e	und	.	8gn	und	.	8an	und	.
8C#	im	.	8e	im	.	8g	im	.	8a	im	.
.	.	.	.	.	.	.	.	.	8qcc#/	.	.
8C#	Fluß	.	8e	Fluß	.	8g	Fluß	.	8b	Fluß	.
8C#	die	.	8e	die	.	8g	die	.	8a	die	.
4Dn	Ni-	.	4An	Ni-	.	4f#	Ni-	.	4a	Ni-	.
4D	-xen	.	4A	-xen	.	4f#	-xen	.	4a	-xen	.
=44	=44	=44	=44	=44	=44	=44	=44	=44	=44	=44	=44
2BB	lau-	.	2dn	lau-	.	2g#	lau-	.	2ff#	lau-	.
4C#	-schen,	.	4c#	-schen,	.	4g#	-schen,	.	4ee#X	-schen,	.
8.B	komm	.	8.c#	komm	.	8.fn	komm	.	8.cc#	komm	.
!LO:TX:a:i:t=cresc.	!	!	!LO:TX:a:i:t=cresc.	!	!	!LO:TX:a:i:t=cresc.	!	!	!LO:TX:a:i:t=cresc.	!	!
16B	her-	.	16c#	her-	.	16f	her-	.	16cc#	her-	.
=45	=45	=45	=45	=45	=45	=45	=45	=45	=45	=45	=45
4.An	-ab,	.	4.c#	-ab,	.	4.f#	-ab,	.	4.ff#	-ab,	.
8A	hier	.	8c#	hier	.	8f#	hier	.	8cc#	hier	.
4A	ist’s	.	4c#	ist’s	.	4f#	ist’s	.	4cc#	ist’s	.
4A	so	.	4cn	so	.	4f#	so	.	4dd#	so	.
=46	=46	=46	=46	=46	=46	=46	=46	=46	=46	=46	=46
2G#	kühl,	.	2B	kühl,	.	2e	kühl,	.	2ee	kühl,	.
4r	.	.	4r	.	.	4r	.	.	4r	.	.
!	!	!LO:DY:a	!	!	!LO:DY:a	!	!	!LO:DY:a	!	!	!LO:DY:a
8.Gn	komm	p	8.B	komm	p	8.e	komm	p	8.b	komm	p
16G	her-	.	16B	her-	.	16e	her-	.	16cc#	her-	.
=47	=47	=47	=47	=47	=47	=47	=47	=47	=47	=47	=47
4.F#	-ab,	.	4.B	-ab,	.	4.d#	-ab,	.	4.dd#	-ab,	.
8F#	hier	.	8B	hier	.	8d#	hier	.	8cc#	hier	.
4F#	ist’s	.	4c#	ist’s	.	4e	ist’s	.	4b	ist’s	.
4F#	so	.	4c#	so	.	4e	so	.	4a#	so	.
=48	=48	=48	=48	=48	=48	=48	=48	=48	=48	=48	=48
2.BB	kühl,	.	(2A#	kühl,	.	(2e	kühl,	.	(2cc#	kühl,	.
.	.	.	4B)	.	.	4d#)	.	.	4b)	.	.
8.B	komm	.	8.d#	komm	.	8.f#	komm	.	4r	.	.
16B	her-	.	16e	her-	.	16gn	her-	.	.	.	.
=49	=49	=49	=49	=49	=49	=49	=49	=49	=49	=49	=49
2.B	-ab,	.	2.e	-ab,	.	2.gn	-ab,	.	4r	.	.
!	!	!	!	!	!	!	!	!	!LO:TX:a:i:t=cresc.	!	!
.	.	.	.	.	.	.	.	.	8.b	komm	.
.	.	.	.	.	.	.	.	.	16ccn	her-	.
.	.	.	.	.	.	.	.	.	4cc	-ab,	.
!LO:TX:a:i:t=cresc.	!	!	!LO:TX:a:i:t=cresc.	!	!	!LO:TX:a:i:t=cresc.	!	!	!	!	!
8.B	komm	.	8.e	komm	.	8.g	komm	.	4r	.	.
16B	her-	.	16fn	her-	.	16g#X	her-	.	.	.	.
=50	=50	=50	=50	=50	=50	=50	=50	=50	=50	=50	=50
2.B	-ab,	.	2.fn	-ab,	.	2.g#	-ab,	.	4r	.	.
.	.	.	.	.	.	.	.	.	8.cc#	komm	.
.	.	.	.	.	.	.	.	.	16ddn	her-	.
.	.	.	.	.	.	.	.	.	4dd	-ab,	.
!	!	!LO:DY:a	!	!	!LO:DY:a	!	!	!	!	!	!LO:DY:a
8.B	komm	f	8.f#X	komm	f	8.an	komm	.	8.dd#X	komm	f
16E	her-	.	16e	her-	.	16g#	her-	.	16ee	her-	.
=51	=51	=51	=51	=51	=51	=51	=51	=51	=51	=51	=51
4.E	-ab,	.	4.e	-ab,	.	4.g#	-ab,	.	4.ee	-ab,	.
!	!	!LO:DY:a	!	!	!LO:DY:a	!	!	!LO:DY:a	!	!	!LO:DY:a
8E	hier	p	8e	hier	p	8gn	hier	p	8cc#	hier	p
4F#	ist’s	.	4d#	ist’s	.	4f#	ist’s	.	4b	ist’s	.
4F#	so	.	4c#	so	.	4e	so	.	8a#L	so	.
.	.	.	.	.	.	.	.	.	8ff#J	.	.
=52	=52	=52	=52	=52	=52	=52	=52	=52	=52	=52	=52
2.BB	kühl.	.	(2A#	kühl.	.	(2e	kühl.	.	(2ff#	kühl.	.
.	.	.	4B)	.	.	4d#)	.	.	4b)	.	.
4r	.	.	4r	.	.	4r	.	.	4r	.	.
==	==	==	==	==	==	==	==	==	==	==	==
*-	*-	*-	*-	*-	*-	*-	*-	*-	*-	*-	*-
!!!system-decoration: [(s1,s2,s3,s4)]